!!!COM: Corelli, Arcangelo
!!!OPR: Sonata da chiesa
!!!OPS: 1
!!!ONM: 12
!!!OMV: 3
!!!OMD: Grave
**kern	**fb	**kern	**kern
*part4	*part4	*part2	*part1
*staff4	*	*staff2	*staff1
*I"Violone & Organo	*	*I"Violino II	*I"Violino I
*clefF4	*	*clefG2	*clefG2
*k[f#c#]	*	*k[f#c#]	*k[f#c#]
*b:	*	*b:	*b:
*M4/4	*	*M4/4	*M4/4
*met(c)	*	*met(c)	*met(c)
=1	=1	=1	=1
4B	.	4dd	4ff#
4A#X	6	4cc#	4ff#
2B	.	2dd	2ff#
=2	=2	=2	=2
4B	.	4f#	4dd
4Ani	6	[4f#	4cc#
2G	7	4f#]	2b
.	6	4e	.
=3	=3	=3	=3
2F#	#	2f#	2a#X
4d	nr5	4ff#	2aani
4c#	6	4ee	.
=4	=4	=4	=4
4B	6	4dd	4gg
4A	6	4cc#	2ff#
4G	7	(8bL	.
.	.	8cc#J)	.
4G#X	-r7 5	[4dd	4ffn
=5	=5	=5	=5
4A	5 4	4dd]	2ee
4AA	3	4cc#	.
2D	.	2dd	2ff#Xi
=6	=6	=6	=6
4BB	.	4d	4f#
4AA#X	6	4c#	4f#
2BB	.	2d	2f#
=7	=7	=7	=7
4B	.	2ff#	4dd
4Ani	6 #4|	.	4dd#X
2G	6	4b	4.ee
.	.	[4ee	.
.	.	.	8bb
=8	=8	=8	=8
4F#	7	4ee]	4aa
4BB	7 #	4dd#X	2aa
2E	4	8eeL	.
.	.	8bJ	.
.	3	[4ee	4gg
=9	=9	=9	=9
2AA#X	6 5	4ee]	[2ff#
.	.	8ddniL	.
.	.	8cc#J	.
4BB	5	4.dd	8ff#L]
.	.	.	8ff#J
4B	6	.	[4gg
.	.	(16eeLL	.
.	.	16ddJJ)	.
=10	=10	=10	=10
2Ani	6	4.cc#	8ggL]
.	.	.	(16aaL
.	.	.	16ggJJ)
.	6	.	[4ff#
.	.	(16ddLL	.
.	.	16cc#JJ)	.
2G	7	4.b	8ff#L]
.	.	.	(16ggL
.	.	.	16ff#JJ)
.	6	.	[4ee
.	.	(16cc#LL	.
.	.	16bJJ)	.
=11	=11	=11	=11
4F#	7 #	8a#XL	4ee]
.	.	8f#J	.
4G	5	2b	4dd
4E	6 5	.	2cc#
4F#	#	4a#	.
=12	=12	=12	=12
4BB	.	4b	8bL
.	.	.	8bJ
8r	.	8r	[4ff#
8AA	6	8cc#	.
2GG	7	4.b	8ff#L]
.	.	.	(16ggL
.	.	.	16ff#JJ)
.	6	.	4ee
.	.	(16cc#LL	.
.	.	16bJJ)	.
=13	=13	=13	=13
2FF#	#	2a#X	2ff#
2r	.	2r	2r
==	==	==	==
*-	*-	*-	*-
!!!system-decoration: [{s1,s2},s3,s4]
!!!YEM: CC BY-NC-SA 4.0; CCARH; DCML
!!!RDF**kern: i = editorial accidental